X: 1
T: Penttil\"an sillalla
T: At the Penttil\"a bridge
C: Konsta Jylh\"a
Z: John Chambers <jc@trillian.mit.edu>
M: 4/4
L: 1/8
K: Em
|: "Em"e>f ge B2 B2 | G>A GE "Am"F4 | "B7"F>G Ac B2 BF | "Em"A2 G2 GF E2 \
| e>f ge B2 B2 | B>e ge "Am"f4 | "B7"fg ag fe ^dB | "Em"e2 e2 "fine"e4 :|
|: "D7"D2 FA cB ce | "G"d2 dg B2 Bd | "D7"c2 ce AG FD | "G"G2 B2 d4 \
| "C"e2 ef ~g2 fe | "G"d2 dg B2 Bd | "D7"c2 ce fd ef | "G"g2 g2 g4 :|
